X:1
T:Gur Milis Mhorag
M:9/8
L:1/8
Q:80
C:Trad.
S:Slow Air
K:HP
|: {g}e | \
{A}e3/2f/2{g}e{g}c3{GdG}c3/2f/2{g}e | \
{g}c3/2B/2{G}A{g}c2{GdG}c{g}e2{gf}g |
{ag}a3/2g/2a{cd}c3{e}A3/2{g}c/2{G}A | \
{g}B2{G}A{GAG}A3-A2 :: \
{g}f |
{e}f2{g}e{A}e3{g}c3/2f/2e | \
{g}c3/2B/2{G}A{g}c2{GdG}c{g}e2{gf}g | \
{ag}a3/2g/2a{cd}c3{e}A3/2{g}c/2{G}A |
{g}B2{G}A{GAG}A3-A2 :|
